X:215
T:New Scotch Sett No.5. Le4.215
M:2/4
L:1/8
Q:2/4=50
N:* d3 d in Mss
B:L.Leadley MS#4 c1850
Z:Village Music Project 2016 Steve Mansfield
K:D
a/g/ | dddd | da/f/ dd | ccdd | e/c/A/c/ ea/f/ |
dddd | da/f/ dd | ee cc/A/ | "*" d2 d ||
A | .A(ecA) | .A(fdA) | .A(gec) | d/e/f/d/ AA |
.A(ecA) | .A(fdA) | .A(gec) | d2 d !segno! ||
f | ff/>f/ ff/>f/ | ff/>f/ fb | fedc | (Bd) f2 |
ee/e/ gg/g/ | ff/f/ ee/e/ | dcB^A | B3 !D.C.! |]

